swiss/communes/0940.svg

<?xml version="1.0" encoding="UTF-8" standalone="no"?>
<!-- Created with Inkscape (http://www.inkscape.org/) -->

<svg
   xmlns:dc="http://purl.org/dc/elements/1.1/"
   xmlns:cc="http://creativecommons.org/ns#"
   xmlns:rdf="http://www.w3.org/1999/02/22-rdf-syntax-ns#"
   xmlns:svg="http://www.w3.org/2000/svg"
   xmlns="http://www.w3.org/2000/svg"
   xmlns:sodipodi="http://sodipodi.sourceforge.net/DTD/sodipodi-0.dtd"
   xmlns:inkscape="http://www.inkscape.org/namespaces/inkscape"
   version="1.1"
   id="svg2"
   width="2000"
   height="2400"
   viewBox="0 0 2000 2400"
   sodipodi:docname="CHE Teuffenthal COA.svg"
   inkscape:version="0.92.3 (2405546, 2018-03-11)">
  <metadata
     id="metadata8">
    <rdf:RDF>
      <cc:Work
         rdf:about="">
        <dc:format>image/svg+xml</dc:format>
        <dc:type
           rdf:resource="http://purl.org/dc/dcmitype/StillImage" />
        <dc:title></dc:title>
      </cc:Work>
    </rdf:RDF>
  </metadata>
  <defs
     id="defs6">
    <linearGradient
       id="linearGradient2893">
      <stop
         id="stop2895"
         offset="0"
         style="stop-color:#ffffff;stop-opacity:0.3137255;" />
      <stop
         style="stop-color:#ffffff;stop-opacity:0.25098041;"
         offset="0.19"
         id="stop2897" />
      <stop
         id="stop2901"
         offset="0.60000002"
         style="stop-color:#6b6b6b;stop-opacity:0.1254902;" />
      <stop
         id="stop2899"
         offset="1"
         style="stop-color:#000000;stop-opacity:0.1254902;" />
    </linearGradient>
    <linearGradient
       id="linearGradient2955">
      <stop
         id="stop2965"
         offset="0"
         style="stop-color:white;stop-opacity:0;" />
      <stop
         id="stop2959"
         offset="1"
         style="stop-color:black;stop-opacity:0.64583331;" />
    </linearGradient>
  </defs>
  <sodipodi:namedview
     pagecolor="#ffffff"
     bordercolor="#666666"
     borderopacity="1"
     objecttolerance="10"
     gridtolerance="10"
     guidetolerance="10"
     inkscape:pageopacity="0"
     inkscape:pageshadow="2"
     inkscape:window-width="1920"
     inkscape:window-height="1017"
     id="namedview4"
     showgrid="false"
     inkscape:zoom="0.15241354"
     inkscape:cx="-207.73671"
     inkscape:cy="1200"
     inkscape:window-x="-8"
     inkscape:window-y="-8"
     inkscape:window-maximized="1"
     inkscape:current-layer="svg2" />
  <g
     id="g856"
     transform="translate(-44.013521,1023.1012)">
    <g
       inkscape:label="Fond écu"
       id="layer1"
       transform="matrix(3.2355323,0,0,3.0382009,73.845605,-972.9344)"
       style="stroke-width:0.31894726">
      <path
         style="fill:#ffdd22;fill-opacity:1;stroke:#000000;stroke-width:11.1631546;stroke-miterlimit:4;stroke-dasharray:none;stroke-opacity:1"
         d="M 1.5,1.49998 V 460.3679 C 1.5,626.6785 135.81456,761.5 301.49999,761.5 467.18543,761.5 601.5,626.6785 601.5,460.3679 V 1.49998 Z"
         id="path1899"
         inkscape:connector-curvature="0" />
    </g>
    <g
       inkscape:label="Meubles"
       id="layer2"
       transform="matrix(3.2355323,0,0,3.0382009,62.949058,-974.45356)"
       style="stroke-width:0.31894726">
      <path
         id="path4644"
         d="M 4.8677756,2.0000001 V 121.8125 L 224.49278,361.40625 V 750.6875 c 25.43462,7.03547 52.21234,10.8125 79.875,10.8125 27.66268,0 54.44037,-3.77703 79.875,-10.8125 V 361.40625 L 603.86778,121.8125 V 2.0000001 h -79.875 L 314.33653,221.625 104.71153,2.0000001 Z"
         style="fill:#ee2211;fill-opacity:1;fill-rule:evenodd;stroke:#000000;stroke-width:9.88513279;stroke-linecap:butt;stroke-linejoin:miter;stroke-miterlimit:4;stroke-dasharray:none;stroke-opacity:1"
         inkscape:connector-curvature="0" />
    </g>
  </g>
</svg>

<svg xmlns="http://www.w3.org/2000/svg" width="2000" height="2400"><g style="stroke-width:.31894726"><path style="fill:#fd2;fill-opacity:1;stroke:#000;stroke-width:11.1631546;stroke-miterlimit:4;stroke-dasharray:none;stroke-opacity:1" d="M1.5 1.5v458.868c0 166.31 134.315 301.132 300 301.132s300-134.822 300-301.132V1.5z" transform="matrix(3.23553 0 0 3.0382 29.832 50.167)"/></g><g style="stroke-width:.31894726"><path d="M4.868 2v119.813l219.625 239.593v389.281c25.434 7.036 52.212 10.813 79.875 10.813 27.662 0 54.44-3.777 79.875-10.813v-389.28l219.625-239.594V2h-79.875L314.337 221.625 104.712 2z" style="fill:#e21;fill-opacity:1;fill-rule:evenodd;stroke:#000;stroke-width:9.88513279;stroke-linecap:butt;stroke-linejoin:miter;stroke-miterlimit:4;stroke-dasharray:none;stroke-opacity:1" transform="matrix(3.23553 0 0 3.0382 18.936 48.648)"/></g></svg>
